icons/entity/icon_cashback-bonus_xl_color.svg

<svg xmlns="http://www.w3.org/2000/svg" width="36" height="36">
  <defs>
    <radialGradient id="a" r="57.734375%" fx="50%" fy="50%">
      <stop offset="0%" stop-color="#FFF2B5"/>
      <stop offset="100%" stop-color="#F6BA00"/>
    </radialGradient>
  </defs>
  <g fill="none" transform="translate(2 2)">
    <rect width="32" height="32" fill="url(#a)" rx="16"/>
    <path fill="#0B1F35" d="M17.6416667 9.59769488c.1166667.33699351 2.8149999 8.26584592 2.895 8.50346962.0233333.0656704.0083332.1754093-.0875.2142933-.095.0388839-1.4975.6238701-1.575.6549771-.0775.0319712-.1650001-.0146894-.1933333-.0976416-.0291667-.0820883-.6458335-2.0228253-.7116668-2.2163805L14.1 16.6391311l-.7733333 2.2336622c-.0275.0794959-.1108334.1330691-.1933334.0976416l-1.5741666-.6549771c-.0800204-.0354067-.1192298-.1296383-.0891667-.2142933.1-.2972455 2.7566667-8.0982133 2.8933333-8.50346962C14.6258333 8.81137669 14.965 8 16.0033334 8c1.0391665 0 1.3658334.79841539 1.6383333 1.59769488zM11.155 22.0146097c-.0858333 0-.155.0769035-.155.1710889v1.8940765c0 .0950494.0691667.1702249.155.1702249h9.6916667C20.9316666 24.25 21 24.1748245 21 24.0797751v-1.8940765c0-.0950494-.0683334-.1702249-.1533333-.1702249H11.155v-.000864zm3.4783333-7.1468548h2.7258334l-1.2175-4.2599436h-.3175l-1.1908334 4.2599436z"/>
  </g>
</svg>

<?xml version="1.0" encoding="UTF-8"?>
<svg width="36px" height="36px" viewBox="0 0 36 36" version="1.1" xmlns="http://www.w3.org/2000/svg" xmlns:xlink="http://www.w3.org/1999/xlink">
    <!-- Generator: Sketch 49 (51002) - http://www.bohemiancoding.com/sketch -->
    <title>icon_cashback-bonus_xl_color</title>
    <desc>Created with Sketch.</desc>
    <defs></defs>
    <g id="icon_cashback-bonus_xl_color" stroke="none" stroke-width="1" fill="none" fill-rule="evenodd">
        <g id="Group" transform="translate(2.000000, 2.000000)" fill-rule="nonzero">
            <rect id="Rectangle-path-Copy" fill="#FFD700" x="0" y="0" width="32" height="32" rx="16"></rect>
            <path d="M17.6416667,9.59769488 C17.7583334,9.93468839 20.4566666,17.8635408 20.5366667,18.1011645 C20.56,18.1668349 20.5449999,18.2765738 20.4491667,18.3154578 C20.3541667,18.3543417 18.9516667,18.9393279 18.8741667,18.9704349 C18.7966667,19.0024061 18.7091666,18.9557455 18.6808334,18.8727933 C18.6516667,18.790705 18.0349999,16.849968 17.9691666,16.6564128 L14.1,16.6391311 L13.3266667,18.8727933 C13.2991667,18.9522892 13.2158333,19.0058624 13.1333333,18.9704349 L11.5591667,18.3154578 C11.4791463,18.2800511 11.4399369,18.1858195 11.47,18.1011645 C11.57,17.803919 14.2266667,10.0029512 14.3633333,9.59769488 C14.6258333,8.81137669 14.965,8 16.0033334,8 C17.0424999,8 17.3691668,8.79841539 17.6416667,9.59769488 Z M11.155,22.0146097 C11.0691667,22.0146097 11,22.0915132 11,22.1856986 L11,24.0797751 C11,24.1748245 11.0691667,24.25 11.155,24.25 L20.8466667,24.25 C20.9316666,24.25 21,24.1748245 21,24.0797751 L21,22.1856986 C21,22.0906492 20.9316666,22.0154737 20.8466667,22.0154737 L11.155,22.0154737 L11.155,22.0146097 Z M14.6333333,14.8677549 L17.3591667,14.8677549 L16.1416667,10.6078113 L15.8241667,10.6078113 L14.6333333,14.8677549 Z" id="Shape-Copy" fill="#0B1F35"></path>
        </g>
    </g>
</svg>
